icons/pencil-24.svg

<svg width="24" height="24" viewBox="0 0 24 24" fill="none" xmlns="http://www.w3.org/2000/svg">
<path fill-rule="evenodd" clip-rule="evenodd" d="M17.2626 2.17675C17.946 1.49333 19.054 1.49333 19.7374 2.17675L22.3232 4.76254C23.0066 5.44595 23.0066 6.55399 22.3232 7.23741L19.5303 10.0303L19.5179 10.0425L8.68979 20.3784C8.49196 20.5672 8.25263 20.7071 7.99099 20.7867L2.46838 22.4675C2.20339 22.5481 1.91553 22.4762 1.71967 22.2803C1.52382 22.0844 1.45185 21.7966 1.5325 21.5316L3.2061 16.0326C3.29375 15.7446 3.4542 15.4841 3.67195 15.2763L14.4758 4.96347L17.2626 2.17675ZM14.9878 6.54844L4.70766 16.3613C4.67655 16.391 4.65363 16.4282 4.64111 16.4694L3.37695 20.623L7.55425 19.3517C7.59162 19.3403 7.62581 19.3203 7.65408 19.2933L17.9269 9.48749L14.9878 6.54844ZM19 8.43931L21.2626 6.17675C21.3602 6.07912 21.3602 5.92083 21.2626 5.8232L18.6768 3.23741C18.5791 3.13978 18.4209 3.13978 18.3232 3.23741L16.0607 5.49997L19 8.43931Z" fill="#24292E"/>
</svg>

<svg xmlns="http://www.w3.org/2000/svg" width="24" height="24" viewBox="0 0 24 24"><path fill-rule="evenodd" d="M17.263 2.177a1.75 1.75 0 012.474 0l2.586 2.586a1.75 1.75 0 010 2.474L19.53 10.03l-.012.013L8.69 20.378a1.75 1.75 0 01-.699.409l-5.523 1.68a.75.75 0 01-.935-.935l1.673-5.5a1.75 1.75 0 01.466-.756L14.476 4.963l2.787-2.786zm-2.275 4.371l-10.28 9.813a.25.25 0 00-.067.108l-1.264 4.154 4.177-1.271a.25.25 0 00.1-.059l10.273-9.806-2.94-2.939zM19 8.44l2.263-2.262a.25.25 0 000-.354l-2.586-2.586a.25.25 0 00-.354 0L16.061 5.5 19 8.44z"/></svg>
